packages/verification-vue-component/src/assets/img/unverified_icon.svg

<svg width="16" height="16" viewBox="0 0 16 16" fill="none" xmlns="http://www.w3.org/2000/svg">
<path d="M10.6481 14.3909C11.7097 14.7272 12.8703 14.444 13.6577 13.6566C14.4452 12.8691 14.7283 11.7086 14.3921 10.6469C15.3802 10.1339 16.0003 9.11325 16.0003 7.9999C16.0003 6.88656 15.3802 5.8659 14.3921 5.35287C14.7283 4.29124 14.4452 3.13069 13.6577 2.34325C12.8703 1.5558 11.7097 1.27263 10.6481 1.60891C10.135 0.620385 9.11391 0 8.00013 0C6.88635 0 5.86531 0.620385 5.35216 1.60891C4.29115 1.27324 3.13152 1.55617 2.34432 2.34277C1.55713 3.12936 1.27333 4.28879 1.6082 5.35005C0.620098 5.86308 0 6.88374 0 7.99708C0 9.11042 0.620098 10.1311 1.6082 10.6441C1.27031 11.7063 1.55292 12.8683 2.3409 13.6567C3.12889 14.4451 4.29072 14.7283 5.3531 14.3909C5.86596 15.3795 6.88689 16 8.0006 16C9.11431 16 10.1352 15.3795 10.6481 14.3909Z" fill="#F29E18"/>
<path d="M8.06092 12.5249C7.54113 12.5249 7.11975 12.1035 7.11975 11.5837C7.11975 11.064 7.54113 10.6426 8.06092 10.6426C8.58071 10.6426 9.00209 11.064 9.00209 11.5837C9.00209 12.1035 8.58071 12.5249 8.06092 12.5249Z" fill="white"/>
<path d="M8.99013 8.63773C8.76137 8.73757 8.61354 8.9635 8.61366 9.21309C8.61366 9.55962 8.33275 9.84054 7.98622 9.84054C7.63969 9.84054 7.35877 9.55962 7.35877 9.21309C7.35866 8.46453 7.80211 7.78705 8.48818 7.48762C9.06267 7.23689 9.36404 6.60068 9.19412 5.99732C9.0242 5.39396 8.43511 5.00853 7.8142 5.09445C7.19328 5.18038 6.73101 5.71131 6.73133 6.33814C6.73133 6.68467 6.45041 6.96559 6.10389 6.96559C5.75736 6.96559 5.47644 6.68467 5.47644 6.33814C5.47642 5.08464 6.40127 4.02332 7.643 3.8519C8.88473 3.68049 10.0625 4.45153 10.4021 5.65815C10.7417 6.86478 10.139 8.13695 8.99013 8.63835V8.63773Z" fill="white"/>
</svg>

<svg xmlns="http://www.w3.org/2000/svg" viewBox="0 0 16 16" width="16" height="16" fill="none" xmlns:v="https://vecta.io/nano">
    <path
        d="M10.648 14.391c1.062.336 2.222.053 3.01-.734s1.071-1.948.734-3.01C15.38 10.134 16 9.113 16 8s-.62-2.134-1.608-2.647c.336-1.062.053-2.222-.734-3.01s-1.948-1.071-3.01-.734C10.135.62 9.114 0 8 0S5.865.62 5.352 1.609c-1.061-.336-2.221-.053-3.008.734S1.273 4.289 1.608 5.35C.62 5.863 0 6.884 0 7.997s.62 2.134 1.608 2.647c-.338 1.062-.055 2.224.733 3.013s1.95 1.072 3.012.734C5.866 15.38 6.887 16 8.001 16s2.135-.62 2.647-1.609z"
        fill="#f29e18" />
    <path
        d="M8.061 12.525a.941.941 0 1 1 0-1.882.941.941 0 1 1 0 1.882zm.929-3.887c-.229.1-.377.326-.376.575a.63.63 0 0 1-.627.627.63.63 0 0 1-.627-.627 1.88 1.88 0 0 1 1.129-1.725c.574-.251.876-.887.706-1.49s-.759-.989-1.38-.903-1.083.617-1.083 1.244a.63.63 0 0 1-.627.627.63.63 0 0 1-.627-.627 2.51 2.51 0 1 1 3.514 2.3h0z"
        fill="#fff" />
</svg>
